src/images/service/competitive-prices.svg

<svg width="56" height="56" viewBox="0 0 56 56" fill="none" xmlns="http://www.w3.org/2000/svg">
<g clip-path="url(#clip0_590_1112)">
<path d="M21 26.25C30.665 26.25 38.5 22.7242 38.5 18.375C38.5 14.0258 30.665 10.5 21 10.5C11.335 10.5 3.5 14.0258 3.5 18.375C3.5 22.7242 11.335 26.25 21 26.25Z" stroke="#00CC66" stroke-width="2" stroke-linecap="round" stroke-linejoin="round"/>
<path d="M3.5 18.375V27.125C3.5 31.4737 11.3356 35 21 35C30.6644 35 38.5 31.4737 38.5 27.125V18.375" stroke="#00CC66" stroke-width="2" stroke-linecap="round" stroke-linejoin="round"/>
<path d="M14 25.5938V34.3438" stroke="#00CC66" stroke-width="2" stroke-linecap="round" stroke-linejoin="round"/>
<path d="M38.5003 21.1575C46.489 21.8881 52.5003 25.0643 52.5003 28.875C52.5003 33.2237 44.6646 36.75 35.0003 36.75C30.7128 36.75 26.784 36.0565 23.7412 34.9037" stroke="#00CC66" stroke-width="2" stroke-linecap="round" stroke-linejoin="round"/>
<path d="M17.5 34.8425V37.625C17.5 41.9737 25.3356 45.5 35 45.5C44.6644 45.5 52.5 41.9737 52.5 37.625V28.875" stroke="#00CC66" stroke-width="2" stroke-linecap="round" stroke-linejoin="round"/>
<path d="M42 36.0938V44.8438" stroke="#00CC66" stroke-width="2" stroke-linecap="round" stroke-linejoin="round"/>
<path d="M28 25.5938V44.8438" stroke="#00CC66" stroke-width="2" stroke-linecap="round" stroke-linejoin="round"/>
</g>
<defs>
<clipPath id="clip0_590_1112">
<rect width="56" height="56" fill="white"/>
</clipPath>
</defs>
</svg>

<svg xmlns="http://www.w3.org/2000/svg" width="56" height="56" fill="none"><g stroke="#0C6" stroke-linecap="round" stroke-linejoin="round" stroke-width="2" clip-path="url(#a)"><path d="M21 26.25c9.665 0 17.5-3.526 17.5-7.875 0-4.35-7.835-7.875-17.5-7.875S3.5 14.026 3.5 18.375c0 4.35 7.835 7.875 17.5 7.875Z"/><path d="M3.5 18.375v8.75C3.5 31.474 11.336 35 21 35s17.5-3.526 17.5-7.875v-8.75M14 25.594v8.75"/><path d="M38.5 21.157c7.989.731 14 3.907 14 7.718 0 4.349-7.835 7.875-17.5 7.875-4.287 0-8.216-.694-11.259-1.846"/><path d="M17.5 34.843v2.782c0 4.349 7.836 7.875 17.5 7.875s17.5-3.526 17.5-7.875v-8.75M42 36.094v8.75M28 25.594v19.25"/></g><defs><clipPath id="a"><path fill="#fff" d="M0 0h56v56H0z"/></clipPath></defs></svg>
